X: 188
T: No_47_Cow_Creek_Hunting_Dance_Song_(n).krn
N: Derived from No_47_Cow_Creek_Hunting_Dance_Song_(n).krn
%%abc-version 2.0
%%abcx-abcm2ps-target-version 5.9.1 (29 Sep 2008)
%%abc-creator hum2abc beta
%%abcx-conversion-date 2019/03/15 08:38:45
%%humdrum-veritas 3252123802
%%humdrum-veritas-data 3206098083
%%linebreak <none>
%%barnumbers 0
L: 1/8
M: 2/4
K: F clef=bass
[K:clef=bass][M:2/4]C3D | 
C4 | 
CB,-B,2 | 
A,A, A,F, ]|:  
C3C | 
A,3F, | 
A,2F,F, | 
F,2F,2 | 
A,3C | 
A,3F, ||  
[M:3/4]A,2F,F,F,2 ||  
[M:2/4]F,4 | 
z4 | 
D,4- | 
D,2D, z/ F,/ | 
F,4- | 
F,2F,2 :|]  



